X: 2
T: Rickett's
R: hornpipe
M: 4/4
L: 1/8
K: Dmaj
|: (3ABc |dcdA FAdf | edcB A2 fg | afaf bagf | edcB A2 fe |
dcdA FAdf | edcB A2 fg | afdg bgec | d2 d2 d2 :|
|: (3efg |afaf d2 ga | bgbg e2 fg | afaf bagf | edcB A2 fe |
dcdA FAdf | edcB A2 fg | afdg bgec | d2 d2 d2 :|


Tune 272	Setting 25361

